svg/basketball_hoop_outline.svg

<svg xmlns="http://www.w3.org/2000/svg" viewBox="0 0 24 24"><path d="M21 2H3a2 2 0 0 0-2 2v12a2 2 0 0 0 2 2h3.57L8 23l2-2 2 2 2-2 2 2 1.43-5H21a2 2 0 0 0 2-2V4a2 2 0 0 0-2-2m0 14h-3v-2h-1V9a2 2 0 0 0-2-2H9a2 2 0 0 0-2 2v5H6v2H3V4h18zM9 14V9h6v5z"/></svg>

<?xml version="1.0" encoding="UTF-8"?><!DOCTYPE svg PUBLIC "-//W3C//DTD SVG 1.1//EN" "http://www.w3.org/Graphics/SVG/1.1/DTD/svg11.dtd"><svg xmlns="http://www.w3.org/2000/svg" xmlns:xlink="http://www.w3.org/1999/xlink" version="1.1" id="mdi-basketball-hoop-outline" width="24" height="24" viewBox="0 0 24 24"><path d="M21,2H3A2,2 0 0,0 1,4V16A2,2 0 0,0 3,18H6.57L8,23L10,21L12,23L14,21L16,23L17.43,18H21A2,2 0 0,0 23,16V4A2,2 0 0,0 21,2M21,16H18V14H17V9A2,2 0 0,0 15,7H9A2,2 0 0,0 7,9V14H6V16H3V4H21V16M9,14V9H15V14H9Z" /></svg>
